X: 238
T: Kan nangua
%%abc-version 2.0
%%abcx-abcm2ps-target-version 5.9.1 (29 Sep 2008)
%%abc-creator hum2abc beta
%%abcx-conversion-date 2013/10/02 07:52:29
%%abc-edited-by Helmut Schaffrath
%%humdrum-veritas 1416514889
%%humdrum-veritas-data 3702085679
%%continueall 1
%%barnumbers 0
L: 1/8
M: 2/4
K: Bb
d cB2 [I:setbarnb 1]| 
f cB2 | 
G f d f | 
d cB2 | 
G B c f | 
d cB2 | 
G D F G | 
D CB,2 | 
d c d f | 
d c B c | 
A GF2 | 
F F F G | 
A GB2 | 
G F F G | 
D CB,2 |]  



